X: 160400
T: Pat O'Brien's
C:  B.Black
M: 6/8
L: 1/8
R: jig
K: G
D | GFG BcB | BAB AGE | GBd ege | edB gdB |
GFG B2 d | c2 A BGE | DGB dBd | cAF G2 :|
d | edB ABd | gfg afd | g2 b age | edB AGA |
BGG cAA | d^cd efg | DGB dBd | cAF G2 :|
